X: 34460
T: Ridee
R: waltz
M: 3/4
K: Edorian
"Em"ef ge "Am"a2|ab "C"gf ed|ef gf "D"d2|fb "Bm"ag f2|
"Em"ef ge "Am"a2|ab "C"gf ed|ef gf "D"df|fa "Bm"g2e2:|
"Em"ed ef d2|"Bm"Bc de f2|"Em"ed ea "D"gf|ag fg e2|
"Em"ed ef d2|"Bm"Bc de f2|"Em"ed ea gf|"D"ag fg e2:|

